lib/brands/logos/amp.svg

<svg xmlns="http://www.w3.org/2000/svg" fill="none" aria-hidden="true" viewBox="0 0 171 69"><g id="AMP"><g id="Union"><path fill="#1D60E6" fill-rule="evenodd" d="M56.2251 34.8646C56.1754 19.8821 44.6403 8.73835 30.2426 8.625C15.3689 8.76193 4.55969 20.5577 4.28133 33.8063C3.96588 48.8065 15.4857 60.2948 29.5895 60.5697C45.0518 60.8709 56.2704 48.5985 56.2251 34.8646ZM25.5636 38.5287C25.2997 38.5285 25.0357 38.5284 24.7718 38.5284C24.483 38.5277 24.1946 38.5286 23.9059 38.5291C23.3863 38.5299 22.8667 38.5308 22.3473 38.5252C21.2262 38.5131 20.8512 37.8839 21.4224 36.8683C21.9713 35.8918 22.5522 34.9337 23.1331 33.9755C23.3589 33.603 23.5848 33.2305 23.8088 32.8568C26.4595 28.4329 29.1123 24.0102 31.7672 19.5888C32.2499 18.9125 33.1073 18.6149 33.9053 18.8466C34.2187 18.9609 34.171 19.1791 34.1266 19.3819C34.118 19.4209 34.1096 19.4593 34.1039 19.4963C33.8673 21.034 33.6198 22.5699 33.3614 24.1039L33.3302 24.2887C33.0103 26.1867 32.6904 28.0846 32.3412 29.9772C32.2202 30.6341 32.5613 30.7003 33.0633 30.6975C34.6798 30.686 36.2964 30.686 37.9129 30.6975C39.3179 30.7079 39.6936 31.3558 38.9775 32.5542C35.5297 38.3155 32.0802 44.0758 28.6289 49.835C28.3568 50.2895 27.0402 50.6174 26.5587 50.3598C26.3229 50.2336 26.3635 50.0494 26.4041 49.8646C26.4123 49.8277 26.4204 49.7907 26.4263 49.7542C26.7986 47.4504 27.1722 45.1468 27.547 42.8434C27.5966 42.5389 27.6454 42.2343 27.6941 41.9296C27.841 41.0116 27.9879 40.0934 28.1578 39.1794C28.2608 38.6258 27.9842 38.5259 27.5425 38.5273C26.883 38.5295 26.2233 38.5291 25.5636 38.5287Z" clip-rule="evenodd"/><path fill="#1D60E6" d="M124.491 36.0647C124.024 37.281 123.553 38.5065 123.078 39.7452C123.012 39.6065 122.953 39.4891 122.9 39.3843C122.804 39.1937 122.73 39.0457 122.67 38.8921C120.273 32.7605 117.888 26.6243 115.515 20.4832C115.395 19.9962 114.932 19.6738 114.434 19.73C112.009 19.7556 109.583 19.7518 107.157 19.7331C106.54 19.7286 106.285 19.9314 106.286 20.5841C106.301 29.8794 106.301 39.1746 106.285 48.4696C106.284 49.0679 106.518 49.1816 107.053 49.174C108.959 49.147 110.866 49.13 112.77 49.1803C113.498 49.1997 113.692 48.9768 113.687 48.2603C113.659 44.0568 113.66 39.8532 113.66 35.6495C113.66 34.8015 113.66 33.9535 113.66 33.1054C113.66 33.0543 113.657 33.002 113.654 32.9492C113.639 32.7186 113.624 32.4754 113.873 32.2527C113.963 32.5066 114.052 32.7577 114.141 33.0069C114.351 33.6002 114.558 34.1827 114.76 34.7669C115.055 35.6175 115.35 36.468 115.645 37.3186C116.904 40.9475 118.162 44.5765 119.404 48.211C119.634 48.8863 119.919 49.2343 120.73 49.1879C122.227 49.1019 123.734 49.1258 125.233 49.1803C125.908 49.2045 126.243 49.0215 126.468 48.3538C127.491 45.3126 128.543 42.2812 129.595 39.2499C129.872 38.4522 130.149 37.6544 130.425 36.8565C130.788 35.8092 131.155 34.7633 131.522 33.7174C131.69 33.2378 131.858 32.7581 132.026 32.2783C132.158 32.5164 132.222 32.7869 132.208 33.059C132.208 34.1624 132.208 35.2659 132.209 36.3693C132.211 40.3176 132.212 44.2658 132.185 48.2138C132.18 48.9834 132.406 49.2021 133.166 49.1806C135.042 49.1276 136.92 49.1387 138.796 49.1768C139.434 49.1896 139.641 49.0121 139.639 48.3542C139.62 39.1167 139.62 29.8792 139.638 20.6417C139.64 19.9747 139.456 19.7203 138.765 19.7286C136.339 19.7591 133.914 19.7529 131.488 19.7321C131.019 19.6657 130.575 19.959 130.452 20.416C129.594 22.7351 128.712 25.0458 127.829 27.3559C126.726 30.2416 125.619 33.1262 124.491 36.0647Z"/><path fill="#1D60E6" fill-rule="evenodd" d="M89.8333 19.7464C89.5015 19.7436 89.1697 19.7407 88.838 19.7407C88.5032 19.7407 88.1683 19.7424 87.8334 19.7441C87.0135 19.7482 86.1937 19.7524 85.3743 19.7317C84.9067 19.6545 84.4592 19.9524 84.35 20.4136C82.9312 24.317 81.4945 28.2141 80.0577 32.1113C79.6754 33.1484 79.2931 34.1855 78.9111 35.2228C78.5751 36.1349 78.2394 37.0471 77.9036 37.9593C76.6218 41.4423 75.34 44.9252 74.0434 48.4027C73.8378 48.9532 73.8548 49.1816 74.5287 49.1733C76.665 49.1433 78.8009 49.1444 80.9365 49.1768C81.4575 49.1844 81.6291 48.9425 81.7678 48.5206C81.9597 47.9363 82.1592 47.3544 82.3587 46.7725C82.6161 46.0217 82.8735 45.2709 83.1145 44.5151C83.193 44.0476 83.6273 43.7262 84.0973 43.7878C87.1859 43.8134 90.2745 43.8138 93.3629 43.7888C93.861 43.7116 94.3288 44.0486 94.4132 44.5456C94.6136 45.1978 94.839 45.8424 95.0645 46.487C95.285 47.1177 95.5056 47.7485 95.7027 48.3864C95.882 48.9657 96.1388 49.1969 96.7839 49.1813C98.2193 49.1461 99.6559 49.1522 101.092 49.1583C101.677 49.1607 102.261 49.1632 102.845 49.1629C103.834 49.1626 103.846 49.157 103.505 48.2349C102.804 46.3351 102.099 44.4363 101.395 42.5376C100.511 40.1527 99.6263 37.7679 98.747 35.3812C96.9209 30.4209 95.1015 25.458 93.289 20.4926C93.1844 19.9969 92.717 19.6643 92.2144 19.7279C91.422 19.7599 90.6276 19.7532 89.8333 19.7464ZM89.595 38.1624C89.3223 38.1641 89.0497 38.1658 88.777 38.1658C88.5042 38.1657 88.2313 38.1644 87.9584 38.1631C87.2793 38.1598 86.6001 38.1565 85.9213 38.1721C85.4381 38.1832 85.2991 38.0383 85.4645 37.562C86.4794 34.6314 87.4882 31.6989 88.4907 28.7643C88.4987 28.741 88.5064 28.7168 88.5141 28.6925C88.5622 28.5402 88.6125 28.3813 88.7715 28.3706C88.9899 28.356 89.0091 28.5117 89.0277 28.6633C89.0344 28.7172 89.041 28.7706 89.0564 28.8157C89.3841 29.7701 89.7106 30.725 90.0372 31.6798C90.7044 33.6305 91.3716 35.5813 92.0477 37.529C92.2324 38.0604 92.0595 38.1887 91.5468 38.1735C90.8965 38.1542 90.2457 38.1583 89.595 38.1624Z" clip-rule="evenodd"/><path fill="#1D60E6" fill-rule="evenodd" d="M144.271 30.9728C144.27 32.1191 144.269 33.2654 144.269 34.4116C144.269 35.5199 144.269 36.6282 144.27 37.7365C144.272 41.2735 144.274 44.8104 144.256 48.3473C144.252 48.9744 144.396 49.1969 145.067 49.1803C146.972 49.132 148.877 49.1317 150.78 49.1796C151.477 49.1972 151.664 48.975 151.656 48.3025C151.642 47.0245 151.644 45.7462 151.646 44.4679C151.648 42.8897 151.65 41.3115 151.623 39.7337C151.61 39.0078 151.851 38.881 152.498 38.8983C153.968 38.9375 155.446 38.9725 156.912 38.881C159.24 38.7354 161.48 38.2092 163.35 36.7075C166.141 34.464 166.984 31.4987 166.659 28.0107C166.175 22.7944 162.329 19.9487 157.593 19.6887C155.042 19.5486 152.488 19.5651 149.934 19.5815C148.361 19.5917 146.789 19.6018 145.216 19.5754C144.441 19.5622 144.247 19.8132 144.252 20.5623C144.277 24.0324 144.274 27.5027 144.271 30.9728ZM151.647 30.1666C151.645 29.8653 151.643 29.5641 151.643 29.2628C151.643 28.9265 151.643 28.5902 151.643 28.2539C151.644 27.5516 151.644 26.8494 151.641 26.1471C151.641 26.1252 151.64 26.1032 151.64 26.0812C151.636 25.807 151.632 25.5467 152.048 25.5676C152.59 25.5947 153.134 25.582 153.678 25.5693C154.717 25.545 155.756 25.5208 156.785 25.7745C158.095 26.0583 159.066 27.1645 159.178 28.5006C159.453 31.4478 158.262 32.8184 155.219 32.9966C154.68 33.0281 154.139 33.0226 153.598 33.0171C153.158 33.0126 152.716 33.0081 152.276 33.0236C151.779 33.0413 151.62 32.8666 151.634 32.3782C151.655 31.6413 151.651 30.904 151.647 30.1666Z" clip-rule="evenodd"/></g></g></svg>

<svg xmlns="http://www.w3.org/2000/svg" fill="none" aria-hidden="true" viewBox="0 0 171 69"><path fill="#1D60E6" fill-rule="evenodd" d="M56.225 34.865c-.05-14.983-11.585-26.127-25.982-26.24C15.369 8.762 4.56 20.558 4.28 33.806c-.315 15 11.205 26.489 25.309 26.764 15.462.3 26.68-11.971 26.635-25.705Zm-30.661 3.664h-1.658c-.52 0-1.04.002-1.559-.004-1.12-.012-1.496-.641-.925-1.657.55-.976 1.13-1.934 1.711-2.893.226-.372.452-.745.676-1.118 2.65-4.424 5.303-8.847 7.958-13.268a1.957 1.957 0 0 1 2.138-.742c.314.114.266.332.222.535a1.847 1.847 0 0 0-.023.114 328.367 328.367 0 0 1-.743 4.608l-.03.185a363.3 363.3 0 0 1-.99 5.688c-.12.657.22.723.722.72 1.617-.011 3.233-.011 4.85 0 1.405.01 1.78.659 1.065 1.857-3.448 5.761-6.898 11.522-10.349 17.281-.272.454-1.589.782-2.07.525-.236-.126-.196-.31-.155-.495.008-.037.016-.074.022-.11a6211.123 6211.123 0 0 1 1.268-7.825c.147-.918.294-1.837.464-2.75.103-.554-.174-.654-.615-.653-.66.002-1.32.002-1.98.002Z" clip-rule="evenodd"/><path fill="#1D60E6" d="m124.491 36.065-1.413 3.68a16.107 16.107 0 0 0-.178-.36 5.781 5.781 0 0 1-.23-.493 5037.608 5037.608 0 0 1-7.155-18.409.998.998 0 0 0-1.081-.753 398.46 398.46 0 0 1-7.277.003c-.617-.004-.872.198-.871.851.015 9.295.015 18.59-.001 27.886-.001.598.233.712.768.704 1.906-.027 3.813-.044 5.717.006.728.02.922-.203.917-.92-.028-4.203-.027-8.407-.027-12.61v-2.545c0-.05-.003-.103-.006-.156-.015-.23-.03-.474.219-.696l.268.754c.21.593.417 1.176.62 1.76l.884 2.552c1.259 3.628 2.517 7.258 3.759 10.892.23.675.515 1.023 1.327.977 1.496-.086 3.003-.062 4.502-.008.675.025 1.01-.158 1.235-.826a1007.94 1007.94 0 0 1 3.127-9.104l.83-2.394c.363-1.047.73-2.093 1.097-3.139l.504-1.439c.132.238.196.509.182.781l.001 3.31c.002 3.949.003 7.897-.024 11.845-.005.77.221.988.981.967 1.876-.053 3.754-.042 5.63-.004.638.013.845-.165.843-.823a6918.77 6918.77 0 0 1-.001-27.712c.002-.667-.182-.922-.873-.913-2.426.03-4.851.024-7.277.003a.936.936 0 0 0-1.036.684c-.858 2.32-1.74 4.63-2.623 6.94-1.103 2.886-2.21 5.77-3.338 8.709Z"/><path fill="#1D60E6" fill-rule="evenodd" d="M89.833 19.746c-.331-.002-.663-.005-.995-.005l-1.005.003c-.82.004-1.64.008-2.459-.012a.902.902 0 0 0-1.024.682c-1.419 3.903-2.855 7.8-4.292 11.697a8246.544 8246.544 0 0 0-2.154 5.848c-1.282 3.483-2.564 6.966-3.86 10.444-.206.55-.19.779.485.77 2.136-.03 4.272-.029 6.407.004.522.007.693-.234.832-.656.192-.585.391-1.167.59-1.748.258-.751.516-1.502.757-2.258a.88.88 0 0 1 .982-.727c3.089.025 6.178.026 9.266 0a.922.922 0 0 1 1.05.758c.2.652.426 1.296.651 1.941.221.63.442 1.261.639 1.9.179.579.436.81 1.081.794a150.88 150.88 0 0 1 4.308-.023c.585.003 1.169.005 1.753.005.989 0 1.001-.006.66-.928-.701-1.9-1.406-3.799-2.11-5.697-.884-2.385-1.769-4.77-2.648-7.157a5808.53 5808.53 0 0 1-5.458-14.888.973.973 0 0 0-1.075-.765c-.792.032-1.586.025-2.38.018Zm-.238 18.416c-.273.002-.545.004-.818.004l-.819-.003a73.182 73.182 0 0 0-2.037.01c-.483.01-.622-.135-.457-.611a2073.06 2073.06 0 0 0 3.027-8.798l.023-.072c.048-.152.099-.31.258-.321.218-.015.237.14.256.292a.774.774 0 0 0 .028.153c.328.954.655 1.909.981 2.864.667 1.95 1.335 3.901 2.01 5.849.186.531.013.66-.5.644a52.916 52.916 0 0 0-1.952-.01Zm54.676-7.189-.002 3.439.001 3.325c.002 3.536.004 7.073-.014 10.61-.004.627.14.85.811.833a113.11 113.11 0 0 1 5.713 0c.697.017.884-.205.876-.877a326.748 326.748 0 0 1-.01-3.835c.002-1.578.004-3.157-.023-4.734-.013-.726.228-.853.875-.836 1.47.04 2.948.074 4.414-.017 2.328-.146 4.568-.672 6.438-2.173 2.791-2.244 3.634-5.21 3.309-8.697-.484-5.217-4.33-8.062-9.066-8.322-2.551-.14-5.105-.124-7.659-.108-1.573.01-3.145.02-4.718-.006-.775-.013-.969.238-.964.987.025 3.47.022 6.94.019 10.41Zm7.376-.806c-.002-.302-.004-.603-.004-.904v-1.01c.001-.701.001-1.404-.002-2.106l-.001-.066c-.004-.274-.008-.534.408-.513.542.027 1.086.014 1.63.001 1.039-.024 2.078-.048 3.107.206a3.05 3.05 0 0 1 2.393 2.726c.275 2.947-.916 4.317-3.959 4.496-.539.031-1.08.026-1.62.02a29.17 29.17 0 0 0-1.323.007c-.497.017-.656-.157-.642-.646.021-.737.017-1.474.013-2.211Z" clip-rule="evenodd"/></svg>
